suite-common/icons/assets/cryptoIcons/sol.svg

<svg width="24" height="24" viewBox="0 0 24 24" fill="none" xmlns="http://www.w3.org/2000/svg">
    <g clip-path="url(#clip0_1319_18)">
        <circle cx="12" cy="12" r="12" fill="#000000"></circle>
        <g clip-path="url(#clip1_1319_18)">
            <path
                d="M18.9279 15.7015L16.6168 18.2419C16.5666 18.2971 16.5058 18.3411 16.4382 18.3711C16.3707 18.4012 16.2978 18.4167 16.2242 18.4167H5.26831C5.21603 18.4167 5.16489 18.401 5.12118 18.3716C5.07746 18.3422 5.04307 18.3004 5.02224 18.2513C5.0014 18.2021 4.99502 18.1478 5.00389 18.095C5.01275 18.0422 5.03647 17.9932 5.07214 17.954L7.385 15.4137C7.43511 15.3586 7.4957 15.3147 7.56303 15.2847C7.63036 15.2546 7.703 15.239 7.77645 15.2389H18.7317C18.784 15.2389 18.8351 15.2545 18.8789 15.2839C18.9225 15.3133 18.9569 15.3551 18.9778 15.4043C18.9986 15.4534 19.005 15.5077 18.9961 15.5605C18.9872 15.6133 18.9635 15.6623 18.9279 15.7015ZM16.6168 10.5859C16.5666 10.5307 16.5058 10.4867 16.4382 10.4566C16.3707 10.4266 16.2978 10.4111 16.2242 10.4111H5.26831C5.21603 10.4111 5.16489 10.4268 5.12118 10.4561C5.07746 10.4855 5.04307 10.5274 5.02224 10.5765C5.0014 10.6256 4.99502 10.6799 5.00389 10.7327C5.01275 10.7855 5.03647 10.8345 5.07214 10.8737L7.385 13.4141C7.43511 13.4691 7.4957 13.513 7.56303 13.5431C7.63036 13.5732 7.703 13.5888 7.77645 13.5889H18.7317C18.784 13.5889 18.8351 13.5732 18.8789 13.5438C18.9225 13.5145 18.9569 13.4726 18.9778 13.4235C18.9986 13.3744 19.005 13.32 18.9961 13.2672C18.9872 13.2145 18.9635 13.1655 18.9279 13.1263L16.6168 10.5859ZM5.26831 8.76111H16.2242C16.2978 8.76114 16.3707 8.74565 16.4382 8.71558C16.5058 8.68551 16.5666 8.64151 16.6168 8.58633L18.9279 6.04594C18.9635 6.00677 18.9872 5.95777 18.9961 5.90496C19.005 5.85216 18.9986 5.79785 18.9778 5.74871C18.9569 5.69958 18.9225 5.65775 18.8789 5.62836C18.8351 5.59898 18.784 5.58333 18.7317 5.58333H7.77645C7.703 5.58346 7.63036 5.59903 7.56303 5.6291C7.4957 5.65916 7.43511 5.70307 7.385 5.75811L5.07273 8.2985C5.0371 8.33762 5.01339 8.38658 5.00451 8.43931C4.99562 8.49206 5.00195 8.54633 5.02271 8.59544C5.04348 8.64456 5.07777 8.68638 5.1214 8.71581C5.16502 8.74524 5.21608 8.76098 5.26831 8.76111Z"
                fill="url(#paint0_linear_1319_18)" />
        </g>
    </g>
    <defs>
        <linearGradient id="paint0_linear_1319_18" x1="6.18176" y1="18.7225" x2="17.9883"
            y2="5.73683" gradientUnits="userSpaceOnUse">
            <stop offset="0.08" stop-color="#9945FF" />
            <stop offset="0.3" stop-color="#8752F3" />
            <stop offset="0.5" stop-color="#5497D5" />
            <stop offset="0.6" stop-color="#43B4CA" />
            <stop offset="0.72" stop-color="#28E0B9" />
            <stop offset="0.97" stop-color="#19FB9B" />
        </linearGradient>
    </defs>
</svg>

<svg fill="none" viewBox="0 0 24 24">
  <g clip-path="url(#prefix__clip0_1319_18)">
    <circle cx="12" cy="12" r="12" fill="#000"/>
    <g clip-path="url(#prefix__clip1_1319_18)">
      <path fill="url(#prefix__a)" d="m18.928 15.701-2.311 2.54a.535.535 0 0 1-.393.176H5.268a.264.264 0 0 1-.147-.045.281.281 0 0 1-.049-.418l2.313-2.54a.535.535 0 0 1 .391-.175h10.956a.26.26 0 0 1 .147.045.274.274 0 0 1 .117.276.279.279 0 0 1-.068.141Zm-2.311-5.115a.536.536 0 0 0-.393-.175H5.268a.264.264 0 0 0-.246.165.281.281 0 0 0 .05.298l2.313 2.54a.538.538 0 0 0 .391.175h10.956a.264.264 0 0 0 .147-.045.274.274 0 0 0 .117-.277.279.279 0 0 0-.068-.14l-2.311-2.541ZM5.268 8.76h10.956a.525.525 0 0 0 .393-.175l2.31-2.54a.278.278 0 0 0-.048-.418.264.264 0 0 0-.147-.045H7.776a.525.525 0 0 0-.391.175l-2.312 2.54a.278.278 0 0 0-.05.297.264.264 0 0 0 .246.166Z"/>
    </g>
  </g>
  <defs>
    <linearGradient id="prefix__a" x1="6.182" x2="17.988" y1="18.723" y2="5.737" gradientUnits="userSpaceOnUse">
      <stop offset=".08" stop-color="#9945FF"/>
      <stop offset=".3" stop-color="#8752F3"/>
      <stop offset=".5" stop-color="#5497D5"/>
      <stop offset=".6" stop-color="#43B4CA"/>
      <stop offset=".72" stop-color="#28E0B9"/>
      <stop offset=".97" stop-color="#19FB9B"/>
    </linearGradient>
  </defs>
</svg>
